X:250
T:Nelson Hornpipe. Le4.250
L:1/8
B:L.Leadley MS#4 c1850
Z:vmp.Mike Hicken 2016 www.village-music-project.org.uk
N: This is tune 41 of The Fiddler of Helperby.
N: * This note is unclear. It could be c or B.
M:C|
Q:1/4=120
K:A
(cd)|ecfc (cA)dB|AGBG (AB)cd|(ea)(ag) (fe)dc|(Bc)d"*"B (AB)cd|
ecfc (cA)dB|AGBG Aaae|cAdB AGBG|A2A2A2 :|
|: cd|(ea)ag fedc|(fe)fg a2 ag|(fed)c (BAG)F|(ED)EF E2 AG|
(FG)AF (GA)BG|(Ac)ec (df)af|(ec)fd (cA)BG|A2A2A2 :|

